X: 1
T: Polkett från Lövstabruk
O: Uppland, Lövstabruk
R: Polkett
B: Spela nyckelharpa 1, nr 1
S: efter Ceylon Wallin
Z: Nils L
D: Inspelad av Skäggmanslaget på Snus, Mus och Brännvin (1971)
M: 2/4
L: 1/8
K: F
c/B/ | Ac FG/A/ | Bd GG/F/ | EG CD/E/ | (FA) c((4:4c//d//c//B//) |
Ac FG/A/ | Bd GG/F/ | EG CD/E/ | [M:3/4]FA F2-!>!F2 ::
[M:2/4]CF A>G | Fd Tc2 | CE/E/ EG | CF/F/ (FA) |
CF A>G | Fd Tc2 | CE/E/ EG/A/ | [M:3/4] GF F2-!>!F2 :|

